icons/circle/48/eintopf.svg

<svg xmlns="http://www.w3.org/2000/svg" viewBox="0 0 48 48">
 <defs>
  <linearGradient id="linearGradient3764" x1="1" x2="47" gradientUnits="userSpaceOnUse" gradientTransform="matrix(0,-1,1,0,-1.5e-6,47.999998)">
   <stop style="stop-color:#d0ecd7;stop-opacity:1"/>
   <stop offset="1" style="stop-color:#def2e3;stop-opacity:1"/>
  </linearGradient>
 </defs>
 <g>
  <path d="m 36.31 5 c 5.859 4.062 9.688 10.831 9.688 18.5 c 0 12.426 -10.07 22.5 -22.5 22.5 c -7.669 0 -14.438 -3.828 -18.5 -9.688 c 1.037 1.822 2.306 3.499 3.781 4.969 c 4.085 3.712 9.514 5.969 15.469 5.969 c 12.703 0 23 -10.298 23 -23 c 0 -5.954 -2.256 -11.384 -5.969 -15.469 c -1.469 -1.475 -3.147 -2.744 -4.969 -3.781 z m 4.969 3.781 c 3.854 4.113 6.219 9.637 6.219 15.719 c 0 12.703 -10.297 23 -23 23 c -6.081 0 -11.606 -2.364 -15.719 -6.219 c 4.16 4.144 9.883 6.719 16.219 6.719 c 12.703 0 23 -10.298 23 -23 c 0 -6.335 -2.575 -12.06 -6.719 -16.219 z" style="opacity:0.05"/>
  <path d="m 41.28 8.781 c 3.712 4.085 5.969 9.514 5.969 15.469 c 0 12.703 -10.297 23 -23 23 c -5.954 0 -11.384 -2.256 -15.469 -5.969 c 4.113 3.854 9.637 6.219 15.719 6.219 c 12.703 0 23 -10.298 23 -23 c 0 -6.081 -2.364 -11.606 -6.219 -15.719 z" style="opacity:0.1"/>
  <path d="m 31.25 2.375 c 8.615 3.154 14.75 11.417 14.75 21.13 c 0 12.426 -10.07 22.5 -22.5 22.5 c -9.708 0 -17.971 -6.135 -21.12 -14.75 a 23 23 0 0 0 44.875 -7 a 23 23 0 0 0 -16 -21.875 z" style="opacity:0.2"/>
 </g>
 <g>
  <path d="m 24 1 c 12.703 0 23 10.297 23 23 c 0 12.703 -10.297 23 -23 23 -12.703 0 -23 -10.297 -23 -23 0 -12.703 10.297 -23 23 -23 z" style="fill:url(#linearGradient3764);fill-opacity:1"/>
 </g>
 <g>
  <path d="m 40.03 7.531 c 3.712 4.084 5.969 9.514 5.969 15.469 0 12.703 -10.297 23 -23 23 c -5.954 0 -11.384 -2.256 -15.469 -5.969 4.178 4.291 10.01 6.969 16.469 6.969 c 12.703 0 23 -10.298 23 -23 0 -6.462 -2.677 -12.291 -6.969 -16.469 z" style="opacity:0.1"/>
 </g>
 <path d="m 28 11 c 0.441 1.667 -6.279 2.222 -3 5 -1.765 -2.222 5.787 -3 3 -5 z m -3 5 a 11 3 0 0 0 -11 3 11 3 0 0 0 1.01 1.246 13 9 0 0 0 -3.01 5.754 13 9 0 0 0 2.75 5.52 c -0.424 1.017 -0.75 2.187 -0.75 3.48 c 1.312 0 2.995 -0.579 4.486 -1.225 a 13 9 0 0 0 6.514 1.225 13 9 0 0 0 6.518 -1.223 c 1.491 0.645 3.171 1.223 4.482 1.223 0 -1.29 -0.325 -2.458 -0.748 -3.473 a 13 9 0 0 0 2.748 -5.527 13 9 0 0 0 -3.01 -5.75 11 3 0 0 0 1.014 -1.25 11 3 0 0 0 -6.484 -2.732 c 2.587 -1.54 6.266 -2.863 3.498 -5.268 c 0.605 1.972 -4.678 3.085 -6.439 5.03 a 11 3 0 0 0 -1.574 -0.033 m 0 1 a 9 2 0 0 1 1.029 0.014 c -0.153 0.821 0.352 1.788 1.992 2.986 -1.066 -1.158 -0.692 -2.061 0.238 -2.861 a 9 2 0 0 1 5.74 1.861 a 9 2 0 0 1 -9 2 9 2 0 0 1 -9 -2 9 2 0 0 1 9 -2 z" style="fill:#000;opacity:0.1;fill-opacity:1;stroke:none"/>
 <path d="M 24 15 A 11 3 0 0 0 13 18 11 3 0 0 0 14.01 19.246 13 9 0 0 0 11 25 13 9 0 0 0 13.75 30.52 C 13.326 31.536 13 32.707 13 34 c 1.312 0 2.995 -0.579 4.486 -1.225 A 13 9 0 0 0 24 34 13 9 0 0 0 30.518 32.777 C 32.01 33.422 33.689 34 35 34 35 32.71 34.675 31.542 34.25 30.527 A 13 9 0 0 0 37 25 13 9 0 0 0 33.986 19.25 11 3 0 0 0 35 18 11 3 0 0 0 24 15 m 0 1 a 9 2 0 0 1 9 2 9 2 0 0 1 -9 2 9 2 0 0 1 -9 -2 9 2 0 0 1 9 -2 z" style="fill:#f06a62;opacity:1;fill-opacity:1;stroke:none"/>
 <path d="m 24.19 15 c 0.122 0.299 0.371 0.628 0.809 0.998 -0.291 -0.366 -0.313 -0.691 -0.186 -0.99 a 11 3 0 0 0 -0.623 -0.008 z m 3.42 0.168 c -0.436 0.285 -0.799 0.588 -1.08 0.912 a 9 2 0 0 1 2.773 0.305 c 0.427 -0.262 0.891 -0.517 1.355 -0.771 a 11 3 0 0 0 -3.049 -0.445 z m 0.252 4.635 a 9 2 0 0 1 -0.082 0.008 c 0.081 0.063 0.153 0.123 0.24 0.188 -0.061 -0.067 -0.106 -0.13 -0.158 -0.195 z" style="fill:#000;opacity:0.1;fill-opacity:1;stroke:none"/>
 <path d="m 27 10 c 0.441 1.667 -6.279 2.222 -3 5 -1.765 -2.222 5.787 -3 3 -5 z m 5.01 0 c 0.921 3 -11.835 4 -4.992 9 -3.684 -4 9.597 -5 4.992 -9 z" style="fill:#9fbfaa;opacity:1;fill-opacity:1;stroke:none"/>
</svg>

<svg xmlns="http://www.w3.org/2000/svg" viewBox="0 0 48 48">
  <defs>
    <linearGradient id="a" x1="1" x2="47" gradientUnits="userSpaceOnUse" gradientTransform="rotate(-90 24 24)">
      <stop stop-color="#d0ecd7"/>
      <stop offset="1" stop-color="#def2e3"/>
    </linearGradient>
  </defs>
  <path d="M36.31 5c5.859 4.062 9.688 10.831 9.688 18.5 0 12.426-10.07 22.5-22.5 22.5-7.669 0-14.438-3.828-18.5-9.688a23.24 23.24 0 0 0 3.781 4.969 22.923 22.923 0 0 0 15.469 5.969c12.703 0 23-10.298 23-23a22.92 22.92 0 0 0-5.969-15.469A23.216 23.216 0 0 0 36.31 5zm4.969 3.781A22.911 22.911 0 0 1 47.498 24.5c0 12.703-10.297 23-23 23a22.909 22.909 0 0 1-15.719-6.219C12.939 45.425 18.662 48 24.998 48c12.703 0 23-10.298 23-23 0-6.335-2.575-12.06-6.719-16.219z" opacity=".05"/>
  <path d="M41.28 8.781a22.923 22.923 0 0 1 5.969 15.469c0 12.703-10.297 23-23 23A22.92 22.92 0 0 1 8.78 41.281 22.911 22.911 0 0 0 24.499 47.5c12.703 0 23-10.298 23-23A22.909 22.909 0 0 0 41.28 8.781z" opacity=".1"/>
  <path d="M31.25 2.375C39.865 5.529 46 13.792 46 23.505c0 12.426-10.07 22.5-22.5 22.5-9.708 0-17.971-6.135-21.12-14.75a23 23 0 0 0 44.875-7 23 23 0 0 0-16-21.875z" opacity=".2"/>
  <path d="M24 1c12.703 0 23 10.297 23 23S36.703 47 24 47 1 36.703 1 24 11.297 1 24 1z" fill="url(#a)"/>
  <path d="M40.03 7.531A22.922 22.922 0 0 1 45.999 23c0 12.703-10.297 23-23 23A22.92 22.92 0 0 1 7.53 40.031C11.708 44.322 17.54 47 23.999 47c12.703 0 23-10.298 23-23 0-6.462-2.677-12.291-6.969-16.469z" opacity=".1"/>
  <path d="M28 11c.441 1.667-6.279 2.222-3 5-1.765-2.222 5.787-3 3-5zm-3 5a11 3 0 0 0-11 3 11 3 0 0 0 1.01 1.246A13 9 0 0 0 12 26a13 9 0 0 0 2.75 5.52C14.326 32.537 14 33.707 14 35c1.312 0 2.995-.579 4.486-1.225A13 9 0 0 0 25 35a13 9 0 0 0 6.518-1.223C33.009 34.422 34.689 35 36 35c0-1.29-.325-2.458-.748-3.473A13 9 0 0 0 38 26a13 9 0 0 0-3.01-5.75A11 3 0 0 0 36.004 19a11 3 0 0 0-6.484-2.732c2.587-1.54 6.266-2.863 3.498-5.268.605 1.972-4.678 3.085-6.439 5.03a11 3 0 0 0-1.574-.033m0 1a9 2 0 0 1 1.029.014c-.153.821.352 1.788 1.992 2.986-1.066-1.158-.692-2.061.238-2.861a9 2 0 0 1 5.74 1.861 9 2 0 0 1-9 2 9 2 0 0 1-9-2 9 2 0 0 1 9-2z" opacity=".1"/>
  <path d="M24 15a11 3 0 0 0-11 3 11 3 0 0 0 1.01 1.246A13 9 0 0 0 11 25a13 9 0 0 0 2.75 5.52C13.326 31.536 13 32.707 13 34c1.312 0 2.995-.579 4.486-1.225A13 9 0 0 0 24 34a13 9 0 0 0 6.518-1.223C32.01 33.422 33.689 34 35 34c0-1.29-.325-2.458-.75-3.473A13 9 0 0 0 37 25a13 9 0 0 0-3.014-5.75A11 3 0 0 0 35 18a11 3 0 0 0-11-3m0 1a9 2 0 0 1 9 2 9 2 0 0 1-9 2 9 2 0 0 1-9-2 9 2 0 0 1 9-2z" fill="#f06a62"/>
  <path d="M24.19 15c.122.299.371.628.809.998-.291-.366-.313-.691-.186-.99A11 3 0 0 0 24.19 15zm3.42.168a5.143 5.143 0 0 0-1.08.912 9 2 0 0 1 2.773.305c.427-.262.891-.517 1.355-.771a11 3 0 0 0-3.049-.445zm.252 4.635a9 2 0 0 1-.082.008c.081.063.153.123.24.188-.061-.067-.106-.13-.158-.195z" opacity=".1"/>
  <path d="M27 10c.441 1.667-6.279 2.222-3 5-1.765-2.222 5.787-3 3-5zm5.01 0c.921 3-11.835 4-4.992 9-3.684-4 9.597-5 4.992-9z" fill="#9fbfaa"/>
</svg>
